outputs/icons/navigation/list_round.svg

<svg xmlns="http://www.w3.org/2000/svg" width="1200" height="1200" fill="none"><g clip-path="url(#a)"><path fill="#000" d="M200 650c27.5 0 50-22.5 50-50s-22.5-50-50-50-50 22.5-50 50 22.5 50 50 50m0 200c27.5 0 50-22.5 50-50s-22.5-50-50-50-50 22.5-50 50 22.5 50 50 50m0-400c27.5 0 50-22.5 50-50s-22.5-50-50-50-50 22.5-50 50 22.5 50 50 50m200 200h600c27.5 0 50-22.5 50-50s-22.5-50-50-50H400c-27.5 0-50 22.5-50 50s22.5 50 50 50m0 200h600c27.5 0 50-22.5 50-50s-22.5-50-50-50H400c-27.5 0-50 22.5-50 50s22.5 50 50 50m-50-450c0 27.5 22.5 50 50 50h600c27.5 0 50-22.5 50-50s-22.5-50-50-50H400c-27.5 0-50 22.5-50 50M200 650c27.5 0 50-22.5 50-50s-22.5-50-50-50-50 22.5-50 50 22.5 50 50 50m0 200c27.5 0 50-22.5 50-50s-22.5-50-50-50-50 22.5-50 50 22.5 50 50 50m0-400c27.5 0 50-22.5 50-50s-22.5-50-50-50-50 22.5-50 50 22.5 50 50 50m200 200h600c27.5 0 50-22.5 50-50s-22.5-50-50-50H400c-27.5 0-50 22.5-50 50s22.5 50 50 50m0 200h600c27.5 0 50-22.5 50-50s-22.5-50-50-50H400c-27.5 0-50 22.5-50 50s22.5 50 50 50m-50-450c0 27.5 22.5 50 50 50h600c27.5 0 50-22.5 50-50s-22.5-50-50-50H400c-27.5 0-50 22.5-50 50"/></g><defs><clipPath id="a"><path fill="#fff" d="M0 0h1200v1200H0z"/></clipPath></defs></svg>

<svg width="1200" height="1200" viewBox="0 0 1200 1200" fill="none" xmlns="http://www.w3.org/2000/svg"><g clip-path="url(#clip0_223_1905)"><path d="M200 650C227.5 650 250 627.5 250 600C250 572.5 227.5 550 200 550C172.5 550 150 572.5 150 600C150 627.5 172.5 650 200 650ZM200 850C227.5 850 250 827.5 250 800C250 772.5 227.5 750 200 750C172.5 750 150 772.5 150 800C150 827.5 172.5 850 200 850ZM200 450C227.5 450 250 427.5 250 400C250 372.5 227.5 350 200 350C172.5 350 150 372.5 150 400C150 427.5 172.5 450 200 450ZM400 650H1000C1027.5 650 1050 627.5 1050 600C1050 572.5 1027.5 550 1000 550H400C372.5 550 350 572.5 350 600C350 627.5 372.5 650 400 650ZM400 850H1000C1027.5 850 1050 827.5 1050 800C1050 772.5 1027.5 750 1000 750H400C372.5 750 350 772.5 350 800C350 827.5 372.5 850 400 850ZM350 400C350 427.5 372.5 450 400 450H1000C1027.5 450 1050 427.5 1050 400C1050 372.5 1027.5 350 1000 350H400C372.5 350 350 372.5 350 400ZM200 650C227.5 650 250 627.5 250 600C250 572.5 227.5 550 200 550C172.5 550 150 572.5 150 600C150 627.5 172.5 650 200 650ZM200 850C227.5 850 250 827.5 250 800C250 772.5 227.5 750 200 750C172.5 750 150 772.5 150 800C150 827.5 172.5 850 200 850ZM200 450C227.5 450 250 427.5 250 400C250 372.5 227.5 350 200 350C172.5 350 150 372.5 150 400C150 427.5 172.5 450 200 450ZM400 650H1000C1027.5 650 1050 627.5 1050 600C1050 572.5 1027.5 550 1000 550H400C372.5 550 350 572.5 350 600C350 627.5 372.5 650 400 650ZM400 850H1000C1027.5 850 1050 827.5 1050 800C1050 772.5 1027.5 750 1000 750H400C372.5 750 350 772.5 350 800C350 827.5 372.5 850 400 850ZM350 400C350 427.5 372.5 450 400 450H1000C1027.5 450 1050 427.5 1050 400C1050 372.5 1027.5 350 1000 350H400C372.5 350 350 372.5 350 400Z" fill="#1D1E23"/></g><defs><clipPath id="clip0_223_1905"><path width="24" fill="white" d="M0 0H1200V1200H0V0z"/></clipPath></defs></svg>
